flaticon/essential/map-location.svg

<svg xmlns="http://www.w3.org/2000/svg" width="32" height="32" viewBox="0 0 24 24">
    <path d="M 22.546875 10.039062 L 17.792969 10.039062 C 17.550781 10.039062 17.355469 10.234375 17.355469 10.476562 C 17.355469 10.714844 17.550781 10.910156 17.792969 10.910156 L 21.765625 10.910156 L 23.027344 22.691406 L 0.988281 22.691406 L 2.472656 10.910156 L 6.453125 10.910156 C 6.691406 10.910156 6.886719 10.714844 6.886719 10.476562 C 6.886719 10.234375 6.691406 10.039062 6.453125 10.039062 L 1.703125 10.039062 L 0 23.5625 L 24 23.5625 Z M 22.546875 10.039062"/>
    <path d="M 11.628906 17 C 11.5625 17.035156 11.496094 17.070312 11.433594 17.109375 C 11.335938 17.171875 11.242188 17.238281 11.152344 17.304688 C 10.957031 17.445312 10.914062 17.71875 11.058594 17.914062 C 11.144531 18.03125 11.277344 18.09375 11.410156 18.09375 C 11.5 18.09375 11.589844 18.066406 11.667969 18.007812 C 11.746094 17.949219 11.824219 17.894531 11.90625 17.84375 C 12.046875 17.75 12.195312 17.667969 12.347656 17.589844 C 12.554688 17.484375 12.636719 17.242188 12.550781 17.035156 C 12.554688 17.03125 12.558594 17.03125 12.5625 17.027344 C 13.351562 16.191406 16.011719 13.058594 17.109375 7.839844 C 17.335938 6.78125 17.382812 5.765625 17.261719 4.820312 C 16.886719 1.953125 15.101562 0.4375 12.105469 0.4375 C 9.113281 0.4375 7.328125 1.953125 6.953125 4.820312 C 6.828125 5.765625 6.878906 6.78125 7.105469 7.839844 C 8.195312 13.007812 10.8125 16.128906 11.628906 17 Z M 7.820312 4.933594 C 8.140625 2.496094 9.542969 1.308594 12.109375 1.308594 C 14.675781 1.308594 16.078125 2.496094 16.394531 4.933594 C 16.507812 5.78125 16.460938 6.699219 16.257812 7.660156 C 15.269531 12.351562 12.90625 15.328125 12.109375 16.230469 C 11.304688 15.328125 8.945312 12.347656 7.957031 7.660156 C 7.753906 6.699219 7.707031 5.78125 7.820312 4.933594 Z M 7.820312 4.933594"/>
    <path d="M12.109375 8.691406C13.875 8.691406 15.3125 7.253906 15.3125 5.488281 15.3125 3.71875 13.875 2.28125 12.109375 2.28125 10.339844 2.28125 8.902344 3.71875 8.902344 5.488281 8.902344 7.253906 10.339844 8.691406 12.109375 8.691406zM12.109375 3.15625C13.394531 3.15625 14.441406 4.203125 14.441406 5.488281 14.441406 6.773438 13.394531 7.820312 12.109375 7.820312 10.820312 7.820312 9.777344 6.773438 9.777344 5.488281 9.777344 4.203125 10.820312 3.15625 12.109375 3.15625zM13.710938 16.214844C13.472656 16.265625 13.324219 16.496094 13.375 16.734375 13.417969 16.9375 13.597656 17.078125 13.800781 17.078125 13.832031 17.078125 13.863281 17.074219 13.890625 17.066406 14.148438 17.015625 14.425781 16.96875 14.714844 16.929688 14.953125 16.902344 15.125 16.683594 15.09375 16.445312 15.0625 16.207031 14.847656 16.03125 14.609375 16.066406 14.292969 16.105469 13.988281 16.15625 13.710938 16.214844zM15.964844 16.390625C15.976562 16.625 16.167969 16.808594 16.402344 16.808594 16.40625 16.808594 16.414062 16.808594 16.421875 16.808594L17.292969 16.773438C17.535156 16.761719 17.71875 16.558594 17.707031 16.316406 17.699219 16.074219 17.472656 15.886719 17.253906 15.902344L16.382812 15.9375C16.140625 15.945312 15.953125 16.152344 15.964844 16.390625zM9.785156 18.398438C9.5625 18.566406 9.328125 18.730469 9.097656 18.882812 8.894531 19.011719 8.835938 19.28125 8.96875 19.484375 9.050781 19.613281 9.191406 19.683594 9.335938 19.683594 9.417969 19.683594 9.5 19.660156 9.570312 19.613281 9.820312 19.453125 10.070312 19.277344 10.3125 19.09375 10.503906 18.949219 10.542969 18.675781 10.398438 18.484375 10.25 18.292969 9.980469 18.253906 9.785156 18.398438zM19.507812 15.523438C19.359375 15.625 19.167969 15.699219 18.921875 15.75 18.683594 15.800781 18.53125 16.03125 18.582031 16.265625 18.625 16.472656 18.804688 16.617188 19.007812 16.617188 19.039062 16.617188 19.066406 16.613281 19.097656 16.605469 19.464844 16.53125 19.761719 16.410156 20.011719 16.234375L20.070312 16.191406C20.261719 16.046875 20.300781 15.773438 20.15625 15.582031 20.007812 15.386719 19.734375 15.351562 19.542969 15.496094zM3.863281 18.933594C3.929688 18.699219 3.789062 18.460938 3.558594 18.398438 3.328125 18.332031 3.085938 18.472656 3.023438 18.707031 2.96875 18.90625 2.933594 19.113281 2.925781 19.320312 2.921875 19.367188 2.921875 19.417969 2.921875 19.472656 2.921875 19.558594 2.925781 19.644531 2.933594 19.726562 2.957031 19.953125 3.148438 20.121094 3.367188 20.121094 3.382812 20.121094 3.398438 20.121094 3.414062 20.117188 3.652344 20.09375 3.828125 19.878906 3.800781 19.640625 3.796875 19.582031 3.792969 19.523438 3.792969 19.46875 3.792969 19.433594 3.796875 19.398438 3.796875 19.359375 3.804688 19.21875 3.828125 19.074219 3.863281 18.933594zM19.5 12.132812C19.152344 12.085938 18.800781 12.113281 18.457031 12.210938 18.226562 12.277344 18.089844 12.515625 18.15625 12.75 18.210938 12.941406 18.386719 13.066406 18.574219 13.066406 18.617188 13.066406 18.65625 13.0625 18.695312 13.050781 18.921875 12.984375 19.15625 12.964844 19.382812 12.996094 19.625 13.027344 19.839844 12.859375 19.871094 12.621094 19.90625 12.382812 19.738281 12.164062 19.5 12.132812zM20.367188 14.292969C20.296875 14.523438 20.425781 14.765625 20.65625 14.835938 20.699219 14.851562 20.742188 14.859375 20.785156 14.859375 20.96875 14.859375 21.140625 14.738281 21.199219 14.550781 21.242188 14.410156 21.269531 14.269531 21.28125 14.128906 21.28125 14.09375 21.28125 14.058594 21.28125 14.019531 21.28125 13.816406 21.246094 13.613281 21.171875 13.414062 21.089844 13.1875 20.835938 13.074219 20.613281 13.15625 20.386719 13.238281 20.269531 13.492188 20.355469 13.714844 20.390625 13.816406 20.410156 13.921875 20.410156 14.019531L20.410156 14.070312C20.402344 14.144531 20.390625 14.214844 20.367188 14.292969zM7.625 19.703125C7.371094 19.820312 7.109375 19.933594 6.851562 20.03125 6.628906 20.121094 6.515625 20.371094 6.601562 20.597656 6.667969 20.769531 6.832031 20.875 7.007812 20.875 7.0625 20.875 7.113281 20.867188 7.167969 20.847656 7.445312 20.738281 7.722656 20.621094 7.996094 20.492188 8.214844 20.390625 8.308594 20.128906 8.207031 19.910156 8.105469 19.695312 7.84375 19.597656 7.625 19.703125zM4.449219 17.886719C4.519531 17.886719 4.589844 17.867188 4.660156 17.832031 4.785156 17.765625 4.917969 17.722656 5.054688 17.707031 5.113281 17.699219 5.175781 17.699219 5.234375 17.707031 5.480469 17.738281 5.691406 17.570312 5.722656 17.332031 5.753906 17.09375 5.585938 16.875 5.347656 16.84375 5.21875 16.824219 5.085938 16.824219 4.957031 16.839844 4.707031 16.867188 4.464844 16.945312 4.242188 17.066406 4.027344 17.183594 3.949219 17.445312 4.066406 17.65625 4.144531 17.804688 4.296875 17.886719 4.449219 17.886719zM4.359375 21.304688C4.453125 21.332031 4.550781 21.347656 4.644531 21.359375 4.757812 21.375 4.867188 21.382812 4.980469 21.382812 5.117188 21.382812 5.253906 21.371094 5.390625 21.355469 5.628906 21.324219 5.796875 21.105469 5.769531 20.867188 5.738281 20.628906 5.519531 20.460938 5.28125 20.488281 5.105469 20.511719 4.925781 20.515625 4.75 20.496094 4.691406 20.488281 4.636719 20.476562 4.578125 20.460938 4.34375 20.398438 4.109375 20.542969 4.046875 20.773438 3.988281 21.007812 4.125 21.246094 4.359375 21.304688zM4.359375 21.304688"/>
</svg>

<svg xmlns="http://www.w3.org/2000/svg" width="32" height="32" viewBox="0 0 24 24">
    <path d="M22.547 10.04h-4.754a.436.436 0 0 0 0 .871h3.973l1.261 11.78H.988l1.485-11.78h3.98a.435.435 0 0 0 0-.872h-4.75L0 23.563h24zm0 0"/>
    <path d="M11.629 17c-.066.035-.133.07-.195.11a5.1 5.1 0 0 0-.282.195.437.437 0 1 0 .258.79c.09-.001.18-.029.258-.087a4.462 4.462 0 0 1 .68-.418.433.433 0 0 0 .203-.555c.004-.004.008-.004.011-.008.79-.836 3.45-3.968 4.547-9.187.227-1.059.274-2.074.153-3.02-.375-2.867-2.16-4.383-5.157-4.383-2.992 0-4.777 1.516-5.152 4.383-.125.946-.074 1.961.152 3.02 1.09 5.168 3.707 8.289 4.524 9.16zM7.82 4.934c.32-2.438 1.723-3.625 4.29-3.625 2.566 0 3.968 1.187 4.285 3.625.113.847.066 1.765-.137 2.726-.988 4.692-3.352 7.668-4.149 8.57-.804-.902-3.164-3.882-4.152-8.57-.203-.96-.25-1.879-.137-2.726zm0 0"/>
    <path d="M12.11 8.691a3.208 3.208 0 0 0 3.203-3.203 3.208 3.208 0 0 0-3.204-3.207 3.21 3.21 0 0 0-3.207 3.207 3.208 3.208 0 0 0 3.207 3.203zm0-5.535a2.336 2.336 0 0 1 2.331 2.332A2.336 2.336 0 0 1 12.11 7.82a2.333 2.333 0 0 1 0-4.664zm0 0M13.71 16.215a.435.435 0 0 0-.335.52.434.434 0 0 0 .516.331c.257-.05.535-.097.824-.136a.432.432 0 0 0 .379-.485.432.432 0 0 0-.485-.379c-.316.04-.62.09-.898.149zm0 0M15.965 16.39a.438.438 0 0 0 .437.419h.02l.871-.036a.434.434 0 0 0 .414-.457.44.44 0 0 0-.453-.414l-.871.036a.434.434 0 0 0-.418.453zm0 0M9.785 18.398c-.223.168-.457.332-.687.485a.431.431 0 0 0-.13.601.433.433 0 0 0 .602.13c.25-.16.5-.337.742-.52a.436.436 0 1 0-.527-.696zm0 0M19.508 15.523c-.149.102-.34.176-.586.227a.437.437 0 1 0 .086.867 2.367 2.367 0 0 0 1.004-.383l.058-.043a.436.436 0 1 0-.527-.695zm0 0M3.863 18.934a.433.433 0 0 0-.304-.536.434.434 0 0 0-.536.309c-.054.2-.09.406-.097.613-.004.047-.004.098-.004.153 0 .086.004.172.012.254a.44.44 0 0 0 .433.394c.016 0 .031 0 .047-.004a.432.432 0 0 0 .387-.476c-.004-.059-.008-.118-.008-.172 0-.035.004-.07.004-.11.008-.14.031-.285.066-.425zm0 0M19.5 12.133c-.348-.047-.7-.02-1.043.078a.436.436 0 1 0 .238.84c.227-.067.461-.086.688-.055a.433.433 0 0 0 .488-.375.43.43 0 0 0-.371-.488zm0 0M20.367 14.293c-.07.23.059.473.29.543a.375.375 0 0 0 .128.023.437.437 0 0 0 .414-.308c.043-.14.07-.281.082-.422v-.11c0-.203-.035-.406-.11-.605a.436.436 0 0 0-.816.3.948.948 0 0 1 .055.306v.05c-.008.075-.02.145-.043.223zm0 0M7.625 19.703c-.254.117-.516.23-.773.328a.442.442 0 0 0-.25.567c.066.172.23.277.406.277a.46.46 0 0 0 .16-.027c.277-.11.555-.227.828-.356a.437.437 0 0 0-.371-.79zm0 0M4.45 17.887c.07 0 .14-.02.21-.055.125-.066.258-.11.395-.125a.692.692 0 0 1 .18 0 .435.435 0 0 0 .113-.863 1.454 1.454 0 0 0-.391-.004c-.25.027-.492.105-.715.226a.43.43 0 0 0-.176.59c.079.149.23.23.383.23zm0 0M4.36 21.305c.093.027.19.043.285.054.113.016.222.024.335.024.137 0 .274-.012.41-.028a.441.441 0 0 0 .38-.488.441.441 0 0 0-.489-.379 2.198 2.198 0 0 1-.531.008 1.342 1.342 0 0 1-.172-.035.436.436 0 0 0-.219.844zm0 0"/>
</svg>
